Yaru++/mimetypes/scalable/application-snap.svg

<svg id="svg42" height="256" viewBox="0 0 67.73 67.73" width="256" xmlns="http://www.w3.org/2000/svg" xmlns:xlink="http://www.w3.org/1999/xlink">
  <linearGradient id="linearGradient4358" gradientUnits="userSpaceOnUse" x1="88" x2="488" y1="88" y2="488">
    <stop id="stop4362" offset="0" stop-opacity=".588235"/>
    <stop id="stop4364" offset=".88" stop-opacity="0"/>
    <stop id="stop4366" offset="1"/>
  </linearGradient>
  <filter id="filter4380" color-interpolation-filters="sRGB" height="1.087725" width="1.105998" x="-.052999" y="-.043863">
    <feGaussianBlur id="feGaussianBlur4382" stdDeviation="8.4801079"/>
  </filter>
  <filter id="filter4346" color-interpolation-filters="sRGB" height="1.021931" width="1.0265" x="-.01325" y="-.010966">
    <feGaussianBlur id="feGaussianBlur4348" stdDeviation="2.120027"/>
  </filter>
  <path id="rect4158-9" d="m189.84323 74c-70.59344 0-78.18921 7.250835-77.84323 77.98706v146.01294 146.01294c-.34598 70.73623 7.24979 77.98706 77.84323 77.98706h196.31354c70.59344 0 76.00668-7.27384 77.84323-77.98706v-146.01294-146.01294c0-70.737067-7.24979-77.98706-77.84323-77.98706z" filter="url(#filter4346)" opacity=".1" transform="matrix(.13228516 0 0 .13228516 -4.409451 -6.038882)"/>
  <path id="path4350" d="m189.84323 74c-70.59344 0-78.18921 7.250835-77.84323 77.98706v146.01294 146.01294c-.34598 70.73623 7.24979 77.98706 77.84323 77.98706h196.31354c70.59344 0 77.84323-7.24999 77.84323-77.98706v-146.01294-146.01294c0-70.737067-7.24979-77.98706-77.84323-77.98706z" fill="url(#linearGradient4358)" filter="url(#filter4380)" opacity=".3" transform="matrix(.13228516 0 0 .13228516 -4.409451 -6.038882)"/>
  <path id="rect4158" d="m46.671928 3.4856494c9.338467 0 10.343273.959178 10.297505 10.3165306v19.315345 19.315344c.04577 9.357355-.959038 10.316531-10.297505 10.316531h-25.969365c-9.338463 0-10.297504-.959068-10.297504-10.316531v-19.315344-19.315345c0-9.3574636.959041-10.3165306 10.297504-10.3165306z" fill="#4b6d5d"/>
  <g stroke-width=".529141">
    <path id="path936" d="m17.251726 19.338165 17.495745 17.495747v-11.187914z" fill="#8bcbab"/>
    <path id="path934" d="m37.395759 25.724541 12.135613 5.455213-2.671541-5.455213z" fill="#fc6542"/>
    <path id="path932" d="m35.822288 26.124497v10.167356l7.296871-6.850408z" fill="#8bcbab"/>
    <path id="path4" d="m30.607877 34.329278-8.084896 15.257749 11.727904-11.728423z" fill="#8bcbab"/>
  </g>
  <path id="path4231" d="m33.688674 3.4856494v59.2637506h12.984614c9.338464 0 10.054627-.962123 10.297574-10.316435v-19.31544-19.315442c0-9.3574636-.95911-10.3164336-10.297574-10.3164336z" fill="#fff" opacity=".08"/>
  <path id="path4255" d="m10.406486 33.117525v19.31544c-.04577 9.357354.959109 10.316435 10.297574 10.316435h25.969228c9.338464 0 10.054627-.962123 10.297574-10.316435v-19.31544z" fill="#fff" opacity=".08"/>
  <path id="path4254" d="m41.096643 62.7494 15.874219-15.874219v5.948567c-.01384 8.994282-1.006077 9.925652-10.099734 9.925652z" fill="#fff" opacity=".08"/>
  <path id="path945" d="m10.406486 51.903567v.529141c-.04577 9.357355.959107 10.316692 10.297574 10.316692h25.969228c9.338464 0 10.054627-.96238 10.297574-10.316692v-.529141c-.242947 9.354312-.95911 10.316692-10.297574 10.316692h-25.969228c-9.338467 0-10.343342-.959337-10.297574-10.316692z" opacity=".2"/>
  <path id="path931" d="m20.70406 3.4856494c-9.338466 0-10.343342.95934-10.297574 10.3166916v.529141c-.04577-9.3573526.959108-10.3166916 10.297574-10.3166916h25.969228c9.338467 0 10.297574.959228 10.297574 10.3166916v-.529141c0-9.3574636-.959107-10.3166916-10.297574-10.3166916z" fill="#fff" opacity=".4"/>
</svg>

<?xml version="1.0" encoding="UTF-8" standalone="no"?>
<svg
   xmlns:dc="http://purl.org/dc/elements/1.1/"
   xmlns:cc="http://creativecommons.org/ns#"
   xmlns:rdf="http://www.w3.org/1999/02/22-rdf-syntax-ns#"
   xmlns:svg="http://www.w3.org/2000/svg"
   xmlns="http://www.w3.org/2000/svg"
   xmlns:xlink="http://www.w3.org/1999/xlink"
   xmlns:sodipodi="http://sodipodi.sourceforge.net/DTD/sodipodi-0.dtd"
   xmlns:inkscape="http://www.inkscape.org/namespaces/inkscape"
   height="256"
   viewBox="0 0 67.73 67.73"
   width="256"
   version="1.1"
   id="svg42"
   sodipodi:docname="9.svg"
   inkscape:version="0.92.5 (2060ec1f9f, 2020-04-08)">
  <metadata
     id="metadata48">
    <rdf:RDF>
      <cc:Work
         rdf:about="">
        <dc:format>image/svg+xml</dc:format>
        <dc:type
           rdf:resource="http://purl.org/dc/dcmitype/StillImage" />
        <dc:title></dc:title>
      </cc:Work>
    </rdf:RDF>
  </metadata>
  <defs
     id="defs46">
    <linearGradient
       inkscape:collect="always"
       xlink:href="#linearGradient4360"
       id="linearGradient4358"
       x1="88"
       y1="88"
       x2="488"
       y2="488"
       gradientUnits="userSpaceOnUse" />
    <linearGradient
       id="linearGradient4360"
       inkscape:collect="always">
      <stop
         id="stop4362"
         offset="0"
         style="stop-color:#000000;stop-opacity:0.58823532" />
      <stop
         style="stop-color:#000000;stop-opacity:0"
         offset="0.88"
         id="stop4364" />
      <stop
         id="stop4366"
         offset="1"
         style="stop-color:#000000;stop-opacity:1" />
    </linearGradient>
    <filter
       inkscape:collect="always"
       style="color-interpolation-filters:sRGB"
       id="filter4380"
       x="-0.052999184"
       width="1.1059984"
       y="-0.043862626"
       height="1.0877253">
      <feGaussianBlur
         inkscape:collect="always"
         stdDeviation="8.4801079"
         id="feGaussianBlur4382" />
    </filter>
    <filter
       inkscape:collect="always"
       style="color-interpolation-filters:sRGB"
       id="filter4346"
       x="-0.013249796"
       width="1.0264996"
       y="-0.010965657"
       height="1.0219313">
      <feGaussianBlur
         inkscape:collect="always"
         stdDeviation="2.120027"
         id="feGaussianBlur4348" />
    </filter>
  </defs>
  <sodipodi:namedview
     pagecolor="#ffffff"
     bordercolor="#666666"
     borderopacity="1"
     objecttolerance="10"
     gridtolerance="10"
     guidetolerance="10"
     inkscape:pageopacity="0"
     inkscape:pageshadow="2"
     inkscape:window-width="1920"
     inkscape:window-height="1016"
     id="namedview44"
     showgrid="false"
     inkscape:zoom="0.921875"
     inkscape:cx="-67.254237"
     inkscape:cy="128"
     inkscape:window-x="0"
     inkscape:window-y="27"
     inkscape:window-maximized="1"
     inkscape:current-layer="svg42" />
  <linearGradient
     id="a"
     gradientTransform="matrix(0 -.11988342 .11987999 0 .362762 292.01605)"
     gradientUnits="userSpaceOnUse"
     x1="529.65515"
     x2="-35.310345"
     y1="401.58368"
     y2="119.09284">
    <stop
       offset="0"
       stop-color="#f2f2f2"
       id="stop2" />
    <stop
       offset="1"
       stop-color="#f9f9f9"
       id="stop4" />
  </linearGradient>
  <linearGradient
     id="b"
     gradientUnits="userSpaceOnUse"
     x1="88"
     x2="488"
     y1="88"
     y2="488">
    <stop
       offset="0"
       stop-opacity=".588235"
       id="stop7" />
    <stop
       offset=".88"
       stop-opacity="0"
       id="stop9" />
    <stop
       offset="1"
       id="stop11" />
  </linearGradient>
  <filter
     id="c"
     color-interpolation-filters="sRGB"
     height="1.087725"
     width="1.105998"
     x="-.052999"
     y="-.043863">
    <feGaussianBlur
       stdDeviation="8.4801079"
       id="feGaussianBlur14" />
  </filter>
  <filter
     id="d"
     color-interpolation-filters="sRGB"
     height="1.021931"
     width="1.0265"
     x="-.01325"
     y="-.010966">
    <feGaussianBlur
       stdDeviation="2.120027"
       id="feGaussianBlur17" />
  </filter>
  <path
     style="color:#000000;display:inline;overflow:visible;visibility:visible;opacity:0.1;fill:#000000;fill-opacity:1;fill-rule:nonzero;stroke:none;stroke-width:2;marker:none;filter:url(#filter4346);enable-background:accumulate"
     d="M 189.84323,74 C 119.24979,74 111.65402,81.250835 112,151.98706 V 298 444.01294 C 111.65402,514.74917 119.24979,522 189.84323,522 H 386.15677 C 456.75021,522 462.16345,514.72616 464,444.01294 V 298 151.98706 C 464,81.249993 456.75021,74 386.15677,74 Z"
     id="rect4158-9"
     inkscape:connector-curvature="0"
     sodipodi:nodetypes="scccssscsss"
     transform="matrix(0.13228516,0,0,0.13228516,-4.4094514,-6.0388816)" />
  <path
     sodipodi:nodetypes="scccssscsss"
     inkscape:connector-curvature="0"
     id="path4350"
     d="M 189.84323,74 C 119.24979,74 111.65402,81.250835 112,151.98706 V 298 444.01294 C 111.65402,514.74917 119.24979,522 189.84323,522 H 386.15677 C 456.75021,522 464,514.75001 464,444.01294 V 298 151.98706 C 464,81.249993 456.75021,74 386.15677,74 Z"
     style="color:#000000;display:inline;overflow:visible;visibility:visible;opacity:0.3;fill:url(#linearGradient4358);fill-opacity:1;fill-rule:nonzero;stroke:none;stroke-width:2;marker:none;filter:url(#filter4380);enable-background:accumulate"
     transform="matrix(0.13228516,0,0,0.13228516,-4.4094514,-6.0388816)" />
  <path
     style="color:#000000;display:inline;overflow:visible;visibility:visible;fill:#4b6d5d;fill-opacity:1;fill-rule:nonzero;stroke:none;stroke-width:0.26457033;marker:none;enable-background:accumulate"
     d="m 46.671928,3.4856494 c 9.338467,0 10.343273,0.959178 10.297505,10.3165306 V 33.117525 52.432869 C 57.015203,61.790224 56.010395,62.7494 46.671928,62.7494 H 20.702563 c -9.338463,0 -10.297504,-0.959068 -10.297504,-10.316531 V 33.117525 13.80218 c 0,-9.3574636 0.959041,-10.3165306 10.297504,-10.3165306 z"
     id="rect4158"
     inkscape:connector-curvature="0"
     sodipodi:nodetypes="scccssscsss" />
  <path
     inkscape:connector-curvature="0"
     style="display:inline;fill:#8bcbab;fill-opacity:1;stroke-width:0.52914065;enable-background:new"
     d="M 17.251726,19.338165 34.747471,36.833912 V 25.645998 Z"
     id="path936" />
  <path
     inkscape:connector-curvature="0"
     style="display:inline;fill:#fc6542;fill-opacity:1;stroke-width:0.52914065;enable-background:new"
     d="m 37.395759,25.724541 12.135613,5.455213 -2.671541,-5.455213 z"
     id="path934" />
  <path
     inkscape:connector-curvature="0"
     style="display:inline;fill:#8bcbab;fill-opacity:1;stroke-width:0.52914065;enable-background:new"
     d="m 35.822288,26.124497 v 10.167356 l 7.296871,-6.850408 z"
     id="path932" />
  <path
     inkscape:connector-curvature="0"
     style="display:inline;fill:#8bcbab;fill-opacity:1;stroke-width:0.52914065;enable-background:new"
     d="M 30.607877,34.329278 22.522981,49.587027 34.250885,37.858604 Z"
     id="path4" />
  <path
     style="color:#000000;display:inline;overflow:visible;visibility:visible;opacity:0.07999998;fill:#ffffff;fill-opacity:1;fill-rule:nonzero;stroke:none;stroke-width:0.26457033;marker:none;enable-background:accumulate"
     d="M 33.688674,3.4856494 V 62.7494 h 12.984614 c 9.338464,0 10.054627,-0.962123 10.297574,-10.316435 V 33.117525 13.802083 c 0,-9.3574636 -0.95911,-10.3164336 -10.297574,-10.3164336 z"
     id="path4231"
     inkscape:connector-curvature="0"
     sodipodi:nodetypes="ccsscssc" />
  <path
     inkscape:connector-curvature="0"
     style="color:#000000;display:inline;overflow:visible;visibility:visible;opacity:0.07999998;fill:#ffffff;fill-opacity:1;fill-rule:nonzero;stroke:none;stroke-width:0.26457033;marker:none;enable-background:accumulate"
     d="m 10.406486,33.117525 v 19.31544 C 10.360716,61.790319 11.365595,62.7494 20.70406,62.7494 h 25.969228 c 9.338464,0 10.054627,-0.962123 10.297574,-10.316435 v -19.31544 z"
     id="path4255"
     sodipodi:nodetypes="ccssscc" />
  <path
     style="color:#000000;display:inline;overflow:visible;visibility:visible;opacity:0.07999998;fill:#ffffff;fill-opacity:1;fill-rule:nonzero;stroke:none;stroke-width:2.11656237;stroke-linecap:butt;stroke-linejoin:miter;stroke-miterlimit:4;stroke-dasharray:none;stroke-dashoffset:0;stroke-opacity:1;marker:none;enable-background:accumulate"
     d="M 41.096643,62.7494 56.970862,46.875181 v 5.948567 C 56.957022,61.81803 55.964785,62.7494 46.871128,62.7494 Z"
     id="path4254"
     inkscape:connector-curvature="0"
     sodipodi:nodetypes="cccsc" />
  <path
     style="color:#000000;display:inline;overflow:visible;visibility:visible;opacity:0.2;fill:#000000;fill-opacity:1;fill-rule:nonzero;stroke:none;stroke-width:0.26457033;marker:none;enable-background:accumulate"
     d="m 10.406486,51.903567 v 0.529141 C 10.360716,61.790063 11.365593,62.7494 20.70406,62.7494 h 25.969228 c 9.338464,0 10.054627,-0.96238 10.297574,-10.316692 v -0.529141 c -0.242947,9.354312 -0.95911,10.316692 -10.297574,10.316692 H 20.70406 c -9.338467,0 -10.343342,-0.959337 -10.297574,-10.316692 z"
     id="path945"
     inkscape:connector-curvature="0" />
  <path
     style="color:#000000;display:inline;overflow:visible;visibility:visible;opacity:0.4;fill:#ffffff;fill-opacity:1;fill-rule:nonzero;stroke:none;stroke-width:0.26457033;marker:none;enable-background:accumulate"
     d="m 20.70406,3.4856494 c -9.338466,0 -10.343342,0.95934 -10.297574,10.3166916 v 0.529141 C 10.360716,4.9741294 11.365594,4.0147904 20.70406,4.0147904 h 25.969228 c 9.338467,0 10.297574,0.959228 10.297574,10.3166916 v -0.529141 c 0,-9.3574636 -0.959107,-10.3166916 -10.297574,-10.3166916 z"
     id="path931"
     inkscape:connector-curvature="0" />
</svg>
